X:1
T:Title
%%score ( 1 2 ) { 3 | 4 }
L:1/8
Q:1/4=103
M:6/8
K:Ab
V:1 treble nm="Drawbar Organ, Soprano"
V:2 treble 
V:3 bass nm="Church Organ, Echoes of Bethlehem"
V:4 bass 
V:1
 [CE] [DE]2 [DE] [DF]2 | [DE] [CE]2 [Ec] [EB]2 | [EA] [EG]2 [EG]GA | [EB] [EA]2- [EA]2- [EA]/ z/ | %4
w: By~J.~Howard~Entwisle * * *||||
 [CE] [DF]2 [DF] [DA]2 | [DF] [CE]2- [CE] [EA]2 | [EB] [Ec]2 [Ec]cB | [=DA] B2- B-[_D-B]>D | %8
w: ||||
 z [CE]2 [CA] [_CG]2 | [_CF] [CF]2- [CF] [=CE]2 | E [DF]2 [A,F] [B,F]2 | %11
w: |||
 [_CF] [=C=E]2- [CE]2- [CE]/ z/ | C F2 G A2 | G A2 B c2 | [Ac] [A=d]2 [Ad]dc | %15
w: ||||
 [A=d] [Ge]2- [Ge]2- [Ge]/ z/ |[M:6/4] z[Q:1/4=135] E- E4- EA- A3 z | z A- A3 z z e- e3 z | %18
w: |||
 z B- B3 z z B- B3 z | z A- A4- A6- | AF- F4- FG- G3 z | z E- E4- EA- A3 z | z c- c4- cB- B3 z | %23
w: |||||
 z B- B4- B6- | BE- E4- EF- F3 z | z A- A4- Ae- e3 z | z B- B4- BA- A3 z | z c- c4- c6- | %28
w: |||||
 cc- c4- cd- d3 z | z c- c4- cB- B3 z | z G- G4- G z z2 z2 | z A- A4- A6- | A6 z6 |] %33
w: |||||
V:2
 x6 | x6 | z3 z E2 | x6 | x6 | x6 | z3 z =D2 | z E2- E z z | x6 | x6 | x6 | x6 | x6 | x6 | %14
 z3 z A2 | x6 |[M:6/4] z2 z [G,D]2 [G,D]- [G,D] z z [G,D]2 [DEG]- | %17
 [DEG]3 [CE]2 [CE]- [CE] z z [EAc]2 [EAc]- | [EAc]3 [DEG]2 [DE=A]- [DEA] z z [DEG]2 [DEGc]- | %19
 [DEGc]3 [CE]2 [CE]- [CE] z z [CE]2 [CE]- | [CE]3 [A,D]2 [A,D]- [A,D] z z [A,D]2 [A,DA]- | %21
 [A,DA]3 [A,C]2 [A,C]- [A,C] z z [CE]2 [EAc]- | [EAc]3 [=DA]2 [DA]- [DA] z z [DA]2 [DA]- | %23
 [DA]3 [_DEG]2 [DEG]- [DEG] z z [DEG]2 [DEG]- | [DEG]3 [G,D]2 [G,D]- [G,D] z z [G,D]2 [DEG]- | %25
 [DEG]3 [CE]2 [CE]- [CE] z z [EA]2 [EGc]- | [EGc]3 [DF]2 [DF]- [DF] z z [DF]2 [DFB]- | %27
 [DFB]3 [=EGB]2 [EGB]- [EGB] z z [EGB]2 [EGB]- | [EGB]3 [_EF=A]2 [EFA]- [EFA] z z [EFA]2 [EFAc]- | %29
 [EFAc]3 [=D_A]2 [DA]- [DA] z z [DA]2 [DF]- | [DF]3 [_DE]2 [DE]- [DE][DE]- [DE]3 [DEGB]- | %31
 [DEGB]C- C3 D- DC- C4- | C6 z6 |] %33
V:3
 A, G,2 G, G,2 | G, A,2 A,[K:treble] D2 | C B,2 B, D2 | D C2- C2- C/ z/ | A, A,2 A, F,2 | %5
 A, A,2- A, A,2 | G, A,2 A, A,2 | A, G,2- G,2- G,/ z/ | z A,2 E, =D,2 | =D, D,2- D, E,2 | %10
 A, A,2 D, F,2 | F, G,2- G,2- G,/ z/ | C, F,2 G, A,2 | G, A,2 B, C2 | F, B,2 B, B,2 | %15
 B, B,2- B, D2 |[M:6/4] z E,- E,4- E,6- | E,A,,- A,,4- A,,6- | A,,G,- G,4- G,6- | %19
 G,A,,- A,,4- A,,6- | A,,D,- D,4- D,6- | D,C,- C,4- C,A,,- A,,4- | A,,B,,- B,,4- B,,6- | %23
 B,,E,- E,4- E,6- | E,E,- E,4- E,6- | E,A,,- A,,4- A,,6- | A,,F,- F,4- F,6- | F,C,- C,4- C,6- | %28
 C,F,- F,4- F,6- | F,B,,- B,,4- B,,6- | B,,E,- E,4- E,G,- G,3 G,- | G,A,- A,3 F,- F,E,- E,4- | %32
 E,6 z6 |] %33
V:4
 z E,2 E, E,2 | .E,3 z A,2 | A, E,2 E, E,2 | E, A,,2- A,,2- A,,/ z/ | A,, D,2 D, D,2 | %5
 D, A,,2- A,, C,2 | .E,3 z F,2 | F, E,2- E,2- E,/ z/ | z A,,2 A,, A,,2 | A,, A,,2- A,, A,,2 | %10
 C, D,2 z D,2 | D, C,2- C,2- C,/ z/ | z6 | z6 | z F,2 F, B,,2 | B,, E,2- E,2- E,/ z/ | %16
[M:6/4] z E,,- E,,4- E,,6- | E,,6 z6 | z E,,- E,,4- E,,6- | E,,6 z6 | z D,,- D,,4- D,,6- | %21
 D,,C,,- C,,4- C,, z z2 z2 | z B,,,- B,,,4- B,,,6- | B,,,E,,- E,,4- E,,6- | E,,E,,- E,,4- E,,6- | %25
 E,,6 z6 | z D,,- D,,4- D,,6- | D,,C,,- C,,4- C,,6- | C,,F,,- F,,4- F,,6- | F,,6 z6 | %30
 z E,,- E,,4- E,,E,- E,3 E,- | E,A,,- A,,4- A,,6- | A,,6 z6 |] %33

